X:1
T:Ravendale, 88.68.86
T:Ravendale, 88.68.86
T:Walter Stokes, 1876
T:Public Domain Courtesy of the Cyber Hymnal™
C:Walter Stokes, 1876
Z:Public Domain
Z:Courtesy of the Cyber Hymnal™
%%score ( 1 2 ) ( 3 4 )
L:1/8
Q:1/4=110
M:4/4
K:Eb
V:1 treble 
V:2 treble 
V:3 bass 
V:4 bass 
V:1
 [EB]2 | [EG]3 [DF] E2 [Ge]2 | [Fd]2 [Dc]2 [EB]2 [EB]2 | [DA]2 [EG]2 [FB]2 [EG]2 | %4
 [B,F]2 E2 [DF]2 [FB]2 | [DB]3 [Fd] [Ed]2 [Ec]2 | [DB]6 [GB]2 | B4 [AB]4 | [GB]6 [Ge]2 | %9
 [Ae]4 [Ae]4 | [Ge]6 [Ge]2 | [Af]2 [Ge]2 [Ad]2 [Dc]2 | [EB]2 G2 [_Gc]2 [Gc]2 | %13
 [GB]2 [EG]2 [EF]2 [DB]2 | E6 |] %15
V:2
 x2 | x4 E2 x2 | x8 | x8 | x2 E2 x4 | x8 | x8 | (G2 E2) x4 | x8 | x8 | x8 | x8 | x2 _G2 x4 | x8 | %14
 E6 |] %15
V:3
 [E,G,]2 | [E,B,]3 [E,A,] [E,G,]2 [E,B,]2 | [F,A,]2 [F,A,]2 [G,B,]2 [G,B,]2 | %3
 [F,B,]2 [E,B,]2 [D,B,]2 [E,B,]2 | [D,B,]2 (B,=A,) [B,,B,]2 [D,B,]2 | %5
 [F,B,]3 [F,B,] [F,=A,]2 [F,A,]2 | [B,,B,]6 [E,B,]2 | (B,2 G,2) (C2 D2) | (E2 D2 _D2) [E,D]2 | %9
 [E,C]4 [E,_C]4 | [E,B,]6 [E,B,]2 | [D,B,]2 [E,B,]2 [F,B,]2 [A,B,]2 | %12
 [G,B,]2 [B,E]2 [=A,E]2 [A,E]2 | [B,E]2 [B,,B,]2 [C,=A,]2 [B,,_A,]2 | [E,G,]6 |] %15
V:4
 x2 | x8 | x8 | x8 | x2 C,2 x4 | x8 | x8 | E,4 E,4 | E,6 x2 | x8 | x8 | x8 | x8 | x8 | x6 |] %15

